X: 5880
T: Calum Sgaire
R: waltz
M: 3/4
K: Bminor
A,2|:D3EF2|FE3F2|dcB2d2|~BAF3 AB|
FED2EF|~BA3FE|F2B,2A,2|1 B,4 A,C:|2 B,4Bc||
d3cB B/c/|BAF3B/c/|d3cde|f2B3c|
d3cB B/c/|BAF3A|B2E2F/G/E|F4 Bc|
d3cB B/c/|BAF3B/c/|d3cde|f2B3d/e/|
f2b3~a|f3~ede|f2B2A2|B4 cd|
D3EF2|FE3F2|dcB3 d|~BAF3 AB|
FED2EF|~BA3FE|F2B,2A,2|B,8||

